X: 21122
T: CUCKOO VALSE
R: waltz
B: K\"ohler's Violin Repository, v.2, 1885 p.112 #2
F: http://www.archive.org/details/klersviolinrepos02rugg
Z: 2012 John Chambers <jc:trillian.mit.edu>
M: 3/4
L: 1/4
K: A
(ucd) |\
(e2a) | (f2a) | (e2c) | (Acf) | (e2d) | (B2f) | (e2c) | (Acd) |\
(e2a) | (f2a) | (e2c) | (Acf) | (e2d) | (B2e) | A3- | A2 ||
ua |\
(g2c) | (d2c) | (a2c) | (.f2.f) | (g2c) | (d2c) | f3- | f2f |\
(g2c) | (d2c) | (a2c) | (.f2.f) | (g2c) | (d2c) | f3- | f "_D.C."|]

% newpage
%%sep 2 1 500

